papirus/32x32/apps/lighttable.svg

<?xml version="1.0" encoding="UTF-8" standalone="no"?>
<!-- Created with Inkscape (http://www.inkscape.org/) -->

<svg
   xmlns:dc="http://purl.org/dc/elements/1.1/"
   xmlns:cc="http://creativecommons.org/ns#"
   xmlns:rdf="http://www.w3.org/1999/02/22-rdf-syntax-ns#"
   xmlns:svg="http://www.w3.org/2000/svg"
   xmlns="http://www.w3.org/2000/svg"
   xmlns:sodipodi="http://sodipodi.sourceforge.net/DTD/sodipodi-0.dtd"
   xmlns:inkscape="http://www.inkscape.org/namespaces/inkscape"
   width="32"
   height="32"
   viewBox="0 0 32 32.000001"
   id="svg4417"
   version="1.1"
   inkscape:version="0.91 r13725"
   sodipodi:docname="lighttable.svg">
  <defs
     id="defs4419" />
  <sodipodi:namedview
     id="base"
     pagecolor="#ffffff"
     bordercolor="#666666"
     borderopacity="1.0"
     inkscape:pageopacity="0.0"
     inkscape:pageshadow="2"
     inkscape:zoom="14.06"
     inkscape:cx="35.058355"
     inkscape:cy="10.395441"
     inkscape:document-units="px"
     inkscape:current-layer="layer1"
     showgrid="false"
     units="px"
     inkscape:window-width="1600"
     inkscape:window-height="849"
     inkscape:window-x="0"
     inkscape:window-y="0"
     inkscape:window-maximized="1" />
  <metadata
     id="metadata4422">
    <rdf:RDF>
      <cc:Work
         rdf:about="">
        <dc:format>image/svg+xml</dc:format>
        <dc:type
           rdf:resource="http://purl.org/dc/dcmitype/StillImage" />
        <dc:title></dc:title>
      </cc:Work>
    </rdf:RDF>
  </metadata>
  <g
     inkscape:label="Layer 1"
     inkscape:groupmode="layer"
     id="layer1"
     transform="translate(0,-1020.3622)">
    <rect
       transform="matrix(0,-1,-1,0,0,0)"
       style="fill:#3465a4;fill-opacity:1;stroke:none"
       id="rect4203"
       width="27.999989"
       height="27.999989"
       x="-1050.3622"
       y="-29.999994"
       rx="2.0999992"
       ry="2.0999992" />
    <g
       style="opacity:0.2;fill:#000000;fill-opacity:1"
       id="g4382"
       transform="translate(0,1.0000174)">
      <path
         style="opacity:1;fill:#000000;fill-opacity:1;stroke:none;stroke-width:1;stroke-linecap:round;stroke-linejoin:round;stroke-miterlimit:4;stroke-dasharray:none;stroke-opacity:1"
         d="M 7 10 L 7 21 L 7 24 L 10 24 L 17 24 L 17 21 L 10 21 L 10 10 L 7 10 z M 15 10 L 15 13 L 22 13 L 22 24 L 25 24 L 25 10 L 15 10 z "
         transform="translate(0,1019.3622)"
         id="rect4384" />
    </g>
    <g
       id="g4376"
       style="fill:#ffffff;fill-opacity:1">
      <rect
         y="1029.3622"
         x="7"
         height="13.999994"
         width="3"
         id="rect4160"
         style="opacity:1;fill:#ffffff;fill-opacity:1;stroke:none;stroke-width:1;stroke-linecap:round;stroke-linejoin:round;stroke-miterlimit:4;stroke-dasharray:none;stroke-opacity:1" />
      <rect
         transform="matrix(0,1,-1,0,0,0)"
         style="opacity:1;fill:#ffffff;fill-opacity:1;stroke:none;stroke-width:1;stroke-linecap:round;stroke-linejoin:round;stroke-miterlimit:4;stroke-dasharray:none;stroke-opacity:1"
         id="rect4162"
         width="3"
         height="10"
         x="1040.3622"
         y="-17" />
      <rect
         transform="scale(-1,-1)"
         style="opacity:1;fill:#ffffff;fill-opacity:1;stroke:none;stroke-width:1;stroke-linecap:round;stroke-linejoin:round;stroke-miterlimit:4;stroke-dasharray:none;stroke-opacity:1"
         id="rect4368"
         width="3"
         height="13.999994"
         x="-25"
         y="-1043.3622" />
      <rect
         y="15"
         x="-1032.3622"
         height="10"
         width="3"
         id="rect4370"
         style="opacity:1;fill:#ffffff;fill-opacity:1;stroke:none;stroke-width:1;stroke-linecap:round;stroke-linejoin:round;stroke-miterlimit:4;stroke-dasharray:none;stroke-opacity:1"
         transform="matrix(0,-1,1,0,0,0)" />
    </g>
    <path
       style="fill:#ffffff;fill-opacity:1;stroke:none;opacity:0.2"
       d="M 4.0996094 2 C 2.9362098 2 2 2.9362098 2 4.0996094 L 2 5.0996094 C 2 3.9362098 2.9362098 3 4.0996094 3 L 27.900391 3 C 29.06379 3 30 3.9362098 30 5.0996094 L 30 4.0996094 C 30 2.9362098 29.06379 2 27.900391 2 L 4.0996094 2 z "
       transform="translate(0,1020.3622)"
       id="rect4348" />
    <path
       style="fill:#000000;fill-opacity:1;stroke:none;opacity:0.3"
       d="M 2 26.900391 L 2 27.900391 C 2 29.06379 2.9362098 30 4.0996094 30 L 27.900391 30 C 29.06379 30 30 29.06379 30 27.900391 L 30 26.900391 C 30 28.06379 29.06379 29 27.900391 29 L 4.0996094 29 C 2.9362098 29 2 28.06379 2 26.900391 z "
       transform="translate(0,1020.3622)"
       id="rect4353" />
  </g>
</svg>

<?xml version="1.0" encoding="UTF-8" standalone="no"?>
<svg id="svg4417" xmlns:rdf="http://www.w3.org/1999/02/22-rdf-syntax-ns#" xmlns="http://www.w3.org/2000/svg" viewBox="0 0 32 32.000001" width="32" version="1.1" xmlns:cc="http://creativecommons.org/ns#" height="32" xmlns:dc="http://purl.org/dc/elements/1.1/">
 <metadata id="metadata4422">
  <rdf:RDF>
   <cc:Work rdf:about="">
    <dc:format>image/svg+xml</dc:format>
    <dc:type rdf:resource="http://purl.org/dc/dcmitype/StillImage"/>
    <dc:title/>
   </cc:Work>
  </rdf:RDF>
 </metadata>
 <g id="layer1" transform="translate(0 -1020.4)">
  <rect id="rect4203" transform="matrix(0,-1,-1,0,0,0)" rx="2.1" ry="2.1" height="28" width="28" y="-30" x="-1050.4" fill="#3465a4"/>
  <g id="g4382" opacity=".2" transform="translate(0 1)">
   <path id="rect4384" opacity="1" d="m7 10v11 3h3 7v-3h-7v-11h-3zm8 0v3h7v11h3v-14h-10z" transform="translate(0 1019.4)"/>
  </g>
  <g id="g4376" fill="#fff">
   <rect id="rect4160" height="14" width="3" y="1029.4" x="7"/>
   <rect id="rect4162" transform="rotate(90)" height="10" width="3" y="-17" x="1040.4"/>
   <rect id="rect4368" transform="scale(-1)" height="14" width="3" y="-1043.4" x="-25"/>
   <rect id="rect4370" transform="rotate(-90)" height="10" width="3" y="15" x="-1032.4"/>
  </g>
  <path id="rect4348" opacity=".2" d="m4.0996 2c-1.1634 0-2.0996 0.9362-2.0996 2.0996v1c0-1.1634 0.9362-2.0996 2.0996-2.0996h23.8c1.164 0 2.1 0.9362 2.1 2.0996v-1c0-1.1634-0.936-2.0996-2.1-2.0996h-23.8z" transform="translate(0 1020.4)" fill="#fff"/>
  <path id="rect4353" opacity=".2" d="m2 1048.3v1c0 1.1634 0.93621 2.0996 2.0996 2.0996h23.801c1.163 0 2.099-1 2.099-2.1v-1c0 1.1634-0.93621 2.0996-2.0996 2.0996h-23.801c-1.1628 0-2.099-1-2.099-2.1z"/>
 </g>
</svg>
